X:10
T:Shenston's Alcove. Tho24CDs1792.10
M:2/4
L:1/8
Q:1/4=100
C:"82"
B:Thompson 24 CDs 1792
Z:Village Music Project, Chris Partington, 1999 & 2017
W:1st & 2nd Cu: foot it & change sides .| the same back again :| Lead down
W:the middle and up again :|. Allemande with your partner :||: Swing corners .:|
W:Swing your partner .:||:.
K:C
|:cc/d/ ec|g>age|f>gfd|(e/d/e/f/) ee|
cc/d/ ec|g>age|f>gfd|c2-c2:|
|:G3A|Bcde|fedc|cBAG|
GABc|defe|dc (e/d/c/B/)|c2c2:|
|:.g.g.gc'|g3e|.f.f.fd|(e/d/e/f/) ee|
.g.g.gc'|g3e|.f.f.fd|c2-c2:|

